src/icons/stop-screen-share.svg

<svg xmlns="http://www.w3.org/2000/svg" width="512" height="512" viewBox="0 0 512 512">
    <path d="M327.8 168.7c6 11.2 9.4 24.1 9.4 37.6 0 43.9-35.6 79.5-79.5 79.5-18.2 0-34.8-6.1-48.1-16.3l118.2-100.8zm-70-41.9c-43.9 0-79.5 35.6-79.5 79.5 0 14.3 3.8 27.7 10.4 39.3l118.7-101.3a79.014 79.014 0 0 0-49.6-17.5zm67.6 292.8c-11.2-7.8-25.6-13.7-25.9-20.2-.4-3.2-1.5-40.2-1.5-40.2h-80.2s-1.4 36.9-1.5 40.2c-.5 6.4-14.7 12.4-25.9 20.2-11.2 7.8.8 10.7 25.9 11.2h83.2c24.9-.5 36.9-3.5 25.9-11.2zM458.3 78.1v252.7c0 5.4-4.7 9.9-10.1 9.9H67.5c-5.5 0-10.1-4.4-10.1-9.9V78.1c0-5.4 4.7-9.9 10.1-9.9h380.4c5.5 0 10.1 4.5 10.4 9.9zm-97.2 128.2c0-57.1-46.2-103.3-103.3-103.3-57.1 0-103.3 46.2-103.3 103.3 0 57.1 46.2 103.3 103.3 103.3 57.1 0 103.3-46.2 103.3-103.3z"/>
</svg>

<?xml version="1.0" encoding="UTF-8"?>
<svg width="512px" height="512px" viewBox="0 0 512 512" version="1.1" xmlns="http://www.w3.org/2000/svg" xmlns:xlink="http://www.w3.org/1999/xlink">
    <!-- Generator: Sketch 62 (91390) - https://sketch.com -->
    <title>stop-screen-share</title>
    <desc>Created with Sketch.</desc>
    <g id="stop-screen-share" stroke="none" stroke-width="1" fill="none" fill-rule="evenodd">
        <path d="M327.8,168.7 C333.8,179.9 337.2,192.8 337.2,206.3 C337.2,250.2 301.6,285.8 257.7,285.8 C239.5,285.8 222.9,279.7 209.6,269.5 L327.8,168.7 L327.8,168.7 Z M257.8,126.799999 C213.9,126.799999 178.3,162.4 178.3,206.299999 C178.3,220.6 182.1,234 188.7,245.6 L307.4,144.299999 C293.350296,132.973554 275.846677,126.797882 257.8,126.799999 L257.8,126.799999 Z M325.4,419.6 C314.2,411.8 299.8,405.9 299.5,399.4 C299.1,396.2 298,359.2 298,359.2 L217.8,359.2 C217.8,359.2 216.4,396.1 216.3,399.4 C215.8,405.8 201.6,411.8 190.4,419.6 C179.2,427.4 191.2,430.3 216.3,430.8 L299.5,430.8 C324.4,430.3 336.4,427.3 325.4,419.6 Z M458.3,78.1 L458.3,330.8 C458.3,336.2 453.6,340.7 448.2,340.7 L67.5,340.7 C62,340.7 57.4,336.3 57.4,330.8 L57.4,78.1 C57.4,72.7 62.1,68.2 67.5,68.2 L447.9,68.2 C453.4,68.2 458,72.7 458.3,78.1 Z M361.1,206.3 C361.1,149.2 314.9,103 257.8,103 C200.7,103 154.5,149.2 154.5,206.3 C154.5,263.4 200.7,309.6 257.8,309.6 C314.9,309.6 361.1,263.4 361.1,206.3 Z" id="Shape" fill="#000000" fill-rule="nonzero"></path>
    </g>
</svg>
